Newaita-dark/mimetypes/16/payment-card-diners-club.svg

<svg height="16pt" viewBox="0 0 16 16" width="16pt" xmlns="http://www.w3.org/2000/svg" xmlns:xlink="http://www.w3.org/1999/xlink"><linearGradient id="a" gradientUnits="userSpaceOnUse" x1="8.269022" x2="8.269022" y1="13.0246855" y2="13.68620743751"><stop offset="0" stop-opacity=".27451"/><stop offset="1" stop-opacity="0"/></linearGradient><linearGradient id="b"><stop offset="0" stop-opacity=".313725"/><stop offset=".222222" stop-opacity=".27451"/><stop offset="1" stop-opacity="0"/></linearGradient><radialGradient id="c" cx="450.90894" cy="189.57936" gradientTransform="matrix(.00000009 -.0390662 -.0703192 -.00000005 26.726847 30.805385)" gradientUnits="userSpaceOnUse" r="21.166656" xlink:href="#b"/><radialGradient id="d" cx="450.90894" cy="189.57936" gradientTransform="matrix(-.00000009 .0390662 .0703192 .00000005 -10.850331 -4.756022)" gradientUnits="userSpaceOnUse" r="21.166656" xlink:href="#b"/><radialGradient id="e" cx="450.90894" cy="189.57936" gradientTransform="matrix(-.00000009 -.0390662 .0703192 -.00000005 -10.850331 30.805385)" gradientUnits="userSpaceOnUse" r="21.166656" xlink:href="#b"/><radialGradient id="f" cx="450.90894" cy="189.57936" gradientTransform="matrix(.00000009 .0390662 -.0703192 .00000005 26.726846 -4.756022)" gradientUnits="userSpaceOnUse" r="21.166656" xlink:href="#b"/><linearGradient id="g" gradientUnits="userSpaceOnUse" x1="7.938262" x2="7.938262" y1="15.34001137502" y2=".78653093751"><stop offset="0" stop-color="#bdbdbd"/><stop offset="1" stop-color="#e0e0e0"/></linearGradient><linearGradient id="h" gradientUnits="userSpaceOnUse" x1="960" x2="960" y1="1575.1182" y2="375.1181"><stop offset="0" stop-color="#42a5f5"/><stop offset="1" stop-color="#64b5f6"/></linearGradient><path d="m2.316406 13.023438h11.246094v.664062h-11.246094zm0 0" fill="url(#a)"/><path d="m13.5625 13.023438h1.320312v-.660157h-1.320312zm0 0" fill="url(#c)"/><path d="m2.316406 13.023438h-1.324218v.664062h1.324218zm0 0" fill="url(#d)"/><path d="m2.316406 13.023438h-1.324218v-.660157h1.324218zm0 0" fill="url(#e)"/><path d="m13.5625 13.023438h1.320312v.664062h-1.320312zm0 0" fill="url(#f)"/><path d="m1.984375 3.101562h11.90625c.367187 0 .664063.296876.664063.660157v8.601562c0 .363281-.296876.660157-.664063.660157h-11.90625c-.363281 0-.660156-.296876-.660156-.660157v-8.601562c0-.363281.296875-.660157.660156-.660157zm0 0" fill="url(#g)"/><path d="m1.984375 3.101562c-.367187 0-.660156.296876-.660156.660157v.167969c0-.367188.292969-.664063.660156-.664063h11.90625c.367187 0 .664063.296875.664063.664063v-.167969c0-.363281-.296876-.660157-.664063-.660157zm0 0" fill="#fff" fill-opacity=".588235"/><path d="m1.324219 12.203125v.160156c0 .367188.292969.660157.660156.660157h11.90625c.367187 0 .664063-.292969.664063-.660157v-.160156c0 .367187-.296876.660156-.664063.660156h-11.90625c-.367187 0-.660156-.292969-.660156-.660156zm0 0" fill-opacity=".235294"/><g stroke="#212121" stroke-linecap="round" stroke-linejoin="round"><path d="m63.493937-115.759477h380.963619c11.748878 0 21.247971 9.499093 21.247971 21.122983v275.223717c0 11.62389-9.499093 21.122983-21.247971 21.122983h-380.963619c-11.62389 0-21.122983-9.499093-21.122983-21.122983v-275.223717c0-11.62389 9.499093-21.122983 21.122983-21.122983zm0 0" fill="none" stroke-width="3" transform="matrix(.031253 0 0 .031253 0 6.719392)"/><path d="m959.908345 655.213029c-177.148439 0-319.811983 142.663544-319.811983 319.811983 0 177.14844 142.663544 320.284379 319.811983 320.284379 177.14844 0 320.284379-143.135939 320.284379-320.284379 0-177.148439-143.135939-319.811983-320.284379-319.811983zm-99.675522 101.565106v436.493755c-83.141667-37.791667-140.301564-120.933335-140.301564-218.246878s57.159897-180.45521 140.301564-218.246877zm199.82344 0c82.669272 37.791667 139.829169 120.933334 139.829169 218.246877s-57.159897 180.455211-139.829169 218.246878zm0 0" fill="url(#h)" stroke-width="11.338583" transform="scale(.00826902)"/></g></svg>

<svg xmlns="http://www.w3.org/2000/svg" xmlns:xlink="http://www.w3.org/1999/xlink" width="16px" height="16px" viewBox="0 0 16 16" version="1.1">
<defs>
<linearGradient id="linear0" gradientUnits="userSpaceOnUse" x1="33.076088" y1="52.098743" x2="33.076088" y2="54.744831" gradientTransform="matrix(0.25,0,0,0.25,0,0)">
<stop offset="0" style="stop-color:rgb(0%,0%,0%);stop-opacity:0.27451;"/>
<stop offset="1" style="stop-color:rgb(0%,0%,0%);stop-opacity:0;"/>
</linearGradient>
<radialGradient id="radial0" gradientUnits="userSpaceOnUse" cx="450.908936" cy="189.579361" fx="450.908936" fy="189.579361" r="21.166656" gradientTransform="matrix(0.0000000875,-0.0390663,-0.0703193,-0.00000005,26.726847,30.805386)">
<stop offset="0" style="stop-color:rgb(0%,0%,0%);stop-opacity:0.313725;"/>
<stop offset="0.222222" style="stop-color:rgb(0%,0%,0%);stop-opacity:0.27451;"/>
<stop offset="1" style="stop-color:rgb(0%,0%,0%);stop-opacity:0;"/>
</radialGradient>
<radialGradient id="radial1" gradientUnits="userSpaceOnUse" cx="450.908936" cy="189.579361" fx="450.908936" fy="189.579361" r="21.166656" gradientTransform="matrix(-0.0000000875,0.0390663,0.0703193,0.00000005,-10.85033,-4.756021)">
<stop offset="0" style="stop-color:rgb(0%,0%,0%);stop-opacity:0.313725;"/>
<stop offset="0.222222" style="stop-color:rgb(0%,0%,0%);stop-opacity:0.27451;"/>
<stop offset="1" style="stop-color:rgb(0%,0%,0%);stop-opacity:0;"/>
</radialGradient>
<radialGradient id="radial2" gradientUnits="userSpaceOnUse" cx="450.908936" cy="189.579361" fx="450.908936" fy="189.579361" r="21.166656" gradientTransform="matrix(-0.0000000875,-0.0390663,0.0703193,-0.00000005,-10.85033,30.805386)">
<stop offset="0" style="stop-color:rgb(0%,0%,0%);stop-opacity:0.313725;"/>
<stop offset="0.222222" style="stop-color:rgb(0%,0%,0%);stop-opacity:0.27451;"/>
<stop offset="1" style="stop-color:rgb(0%,0%,0%);stop-opacity:0;"/>
</radialGradient>
<radialGradient id="radial3" gradientUnits="userSpaceOnUse" cx="450.908936" cy="189.579361" fx="450.908936" fy="189.579361" r="21.166656" gradientTransform="matrix(0.0000000875,0.0390663,-0.0703193,0.00000005,26.726847,-4.756022)">
<stop offset="0" style="stop-color:rgb(0%,0%,0%);stop-opacity:0.313725;"/>
<stop offset="0.222222" style="stop-color:rgb(0%,0%,0%);stop-opacity:0.27451;"/>
<stop offset="1" style="stop-color:rgb(0%,0%,0%);stop-opacity:0;"/>
</radialGradient>
<linearGradient id="linear1" gradientUnits="userSpaceOnUse" x1="31.753048" y1="61.360043" x2="31.753048" y2="3.146122" gradientTransform="matrix(0.25,0,0,0.25,0,0)">
<stop offset="0" style="stop-color:rgb(74.117649%,74.117649%,74.117649%);stop-opacity:1;"/>
<stop offset="1" style="stop-color:rgb(87.843138%,87.843138%,87.843138%);stop-opacity:1;"/>
</linearGradient>
<linearGradient id="linear2" gradientUnits="userSpaceOnUse" x1="960" y1="1575.118164" x2="960" y2="375.118103" >
<stop offset="0" style="stop-color:rgb(25.882354%,64.705884%,96.078432%);stop-opacity:1;"/>
<stop offset="1" style="stop-color:rgb(39.215687%,70.980394%,96.470588%);stop-opacity:1;"/>
</linearGradient>
</defs>
<g id="surface1">
<path style=" stroke:none;fill-rule:nonzero;fill:url(#linear0);" d="M 2.316406 13.023438 L 13.5625 13.023438 L 13.5625 13.6875 L 2.316406 13.6875 Z M 2.316406 13.023438 "/>
<path style=" stroke:none;fill-rule:nonzero;fill:url(#radial0);" d="M 13.5625 13.023438 L 14.882812 13.023438 L 14.882812 12.363281 L 13.5625 12.363281 Z M 13.5625 13.023438 "/>
<path style=" stroke:none;fill-rule:nonzero;fill:url(#radial1);" d="M 2.316406 13.023438 L 0.992188 13.023438 L 0.992188 13.6875 L 2.316406 13.6875 Z M 2.316406 13.023438 "/>
<path style=" stroke:none;fill-rule:nonzero;fill:url(#radial2);" d="M 2.316406 13.023438 L 0.992188 13.023438 L 0.992188 12.363281 L 2.316406 12.363281 Z M 2.316406 13.023438 "/>
<path style=" stroke:none;fill-rule:nonzero;fill:url(#radial3);" d="M 13.5625 13.023438 L 14.882812 13.023438 L 14.882812 13.6875 L 13.5625 13.6875 Z M 13.5625 13.023438 "/>
<path style=" stroke:none;fill-rule:nonzero;fill:url(#linear1);" d="M 1.984375 3.101562 L 13.890625 3.101562 C 14.257812 3.101562 14.554688 3.398438 14.554688 3.765625 L 14.554688 12.363281 C 14.554688 12.726562 14.257812 13.023438 13.890625 13.023438 L 1.984375 13.023438 C 1.617188 13.023438 1.324219 12.726562 1.324219 12.363281 L 1.324219 3.765625 C 1.324219 3.398438 1.617188 3.101562 1.984375 3.101562 Z M 1.984375 3.101562 "/>
<path style=" stroke:none;fill-rule:nonzero;fill:rgb(100%,100%,100%);fill-opacity:0.588235;" d="M 1.984375 3.101562 C 1.617188 3.101562 1.324219 3.398438 1.324219 3.765625 L 1.324219 3.929688 C 1.324219 3.5625 1.617188 3.265625 1.984375 3.265625 L 13.890625 3.265625 C 14.257812 3.265625 14.554688 3.5625 14.554688 3.929688 L 14.554688 3.765625 C 14.554688 3.398438 14.257812 3.101562 13.890625 3.101562 Z M 1.984375 3.101562 "/>
<path style=" stroke:none;fill-rule:nonzero;fill:rgb(0%,0%,0%);fill-opacity:0.235294;" d="M 1.324219 12.203125 L 1.324219 12.363281 C 1.324219 12.730469 1.617188 13.023438 1.984375 13.023438 L 13.890625 13.023438 C 14.257812 13.023438 14.554688 12.730469 14.554688 12.363281 L 14.554688 12.203125 C 14.554688 12.570312 14.257812 12.867188 13.890625 12.867188 L 1.984375 12.867188 C 1.617188 12.867188 1.324219 12.570312 1.324219 12.203125 Z M 1.324219 12.203125 "/>
<path style="fill:none;stroke-width:3;stroke-linecap:round;stroke-linejoin:round;stroke:rgb(12.941177%,12.941177%,12.941177%);stroke-opacity:1;stroke-miterlimit:4;" d="M 63.493907 -115.759414 L 444.457348 -115.759414 C 456.206221 -115.759414 465.705309 -106.260326 465.705309 -94.636441 L 465.705309 180.587147 C 465.705309 192.33602 456.206221 201.71012 444.457348 201.71012 L 63.493907 201.71012 C 51.870022 201.71012 42.370934 192.33602 42.370934 180.587147 L 42.370934 -94.636441 C 42.370934 -106.260326 51.870022 -115.759414 63.493907 -115.759414 Z M 63.493907 -115.759414 " transform="matrix(0.031253,0,0,0.031253,0,6.719391)"/>
<path style="fill-rule:nonzero;fill:url(#linear2);stroke-width:11.338583;stroke-linecap:round;stroke-linejoin:round;stroke:rgb(12.941177%,12.941177%,12.941177%);stroke-opacity:1;stroke-miterlimit:4;" d="M 959.907606 655.212524 C 782.759302 655.212524 640.095869 797.875958 640.095869 975.024261 C 640.095869 1152.644959 782.759302 1295.308393 959.907606 1295.308393 C 1137.528304 1295.308393 1280.191738 1152.644959 1280.191738 975.024261 C 1280.191738 797.875958 1137.528304 655.212524 959.907606 655.212524 Z M 860.23216 756.777551 L 860.23216 1193.743366 C 777.090557 1155.951728 719.930704 1072.337729 719.930704 975.024261 C 719.930704 878.183188 777.090557 794.569189 860.23216 756.777551 Z M 1060.055446 756.777551 C 1142.724654 794.569189 1199.884507 878.183188 1199.884507 975.024261 C 1199.884507 1072.337729 1142.724654 1155.951728 1060.055446 1193.743366 Z M 1060.055446 756.777551 " transform="matrix(0.00826903,0,0,0.00826903,0,0)"/>
</g>
</svg>
